src/assets/svg/muziek-uit.svg

<svg height="90" viewBox="0 0 90 90" width="90" xmlns="http://www.w3.org/2000/svg"><g fill="none" fill-rule="evenodd"><path d="m29 28.2v-16.2" stroke="#232e38" stroke-linecap="round" stroke-linejoin="round" stroke-width="2"/><path d="m70.4 33.6v25.2c0 2.982-2.418 5.4-5.4 5.4h-39.6c-2.982 0-5.4-2.418-5.4-5.4v-25.2c0-2.982 2.418-5.4 5.4-5.4h39.6c2.982 0 5.4 2.418 5.4 5.4" fill="#e45544"/><path d="m70.4 33.6v25.2c0 2.982-2.418 5.4-5.4 5.4h-39.6c-2.982 0-5.4-2.418-5.4-5.4v-25.2c0-2.982 2.418-5.4 5.4-5.4h39.6c2.982 0 5.4 2.418 5.4 5.4z" stroke="#3f291e" stroke-linecap="round" stroke-linejoin="round" stroke-width="2"/><path d="m65 36.3c0 1.491-1.209 2.7-2.7 2.7h-34.2c-1.491 0-2.7-1.209-2.7-2.7s1.209-2.7 2.7-2.7h34.2c1.491 0 2.7 1.209 2.7 2.7" fill="#fff"/><path d="m65 36.3c0 1.491-1.209 2.7-2.7 2.7h-34.2c-1.491 0-2.7-1.209-2.7-2.7s1.209-2.7 2.7-2.7h34.2c1.491 0 2.7 1.209 2.7 2.7z" stroke="#3f291e" stroke-linecap="round" stroke-linejoin="round" stroke-width="2"/><path d="m54.2 51.6c0 4.971-4.029 9-9 9s-9-4.029-9-9 4.029-9 9-9 9 4.029 9 9" fill="#5b6875"/><g stroke-linecap="round" stroke-linejoin="round" stroke-width="2"><path d="m54.2 51.6c0 4.971-4.029 9-9 9s-9-4.029-9-9 4.029-9 9-9 9 4.029 9 9z" stroke="#0e1011"/><path d="m36.3803 49.8h17.639" stroke="#0e1011"/><path d="m37.9999 46.2h14.4" stroke="#0e1011"/><path d="m36.3802 53.4h17.639" stroke="#0e1011"/><path d="m37.9999 57h14.4" stroke="#0e1011"/><path d="m56 38.1v-1.8" stroke="#3f291e"/></g><path d="m65 56.1c0 1.491-1.209 2.7-2.7 2.7s-2.7-1.209-2.7-2.7 1.209-2.7 2.7-2.7 2.7 1.209 2.7 2.7" fill="#5b6875"/><path d="m65 56.1c0 1.491-1.209 2.7-2.7 2.7s-2.7-1.209-2.7-2.7 1.209-2.7 2.7-2.7 2.7 1.209 2.7 2.7z" stroke="#0e1011" stroke-linecap="round" stroke-linejoin="round" stroke-width="2"/><path d="m30.8 56.1c0 1.491-1.209 2.7-2.7 2.7s-2.7-1.209-2.7-2.7 1.209-2.7 2.7-2.7 2.7 1.209 2.7 2.7" fill="#5b6875"/><path d="m30.8 56.1c0 1.491-1.209 2.7-2.7 2.7s-2.7-1.209-2.7-2.7 1.209-2.7 2.7-2.7 2.7 1.209 2.7 2.7z" stroke="#0e1011" stroke-linecap="round" stroke-linejoin="round" stroke-width="2"/></g></svg>

<?xml version="1.0" encoding="UTF-8" standalone="no"?>
<svg width="90px" height="90px" viewBox="0 0 90 90" version="1.1" xmlns="http://www.w3.org/2000/svg" xmlns:xlink="http://www.w3.org/1999/xlink">
    <!-- Generator: Sketch 3.6.1 (26313) - http://www.bohemiancoding.com/sketch -->
    <title>muziek-uit</title>
    <desc>Created with Sketch.</desc>
    <defs></defs>
    <g id="Page-1" stroke="none" stroke-width="1" fill="none" fill-rule="evenodd">
        <g id="muziek-uit">
            <path d="M29,28.2 L29,12" id="Stroke-3" stroke="#232E38" stroke-width="2" stroke-linecap="round" stroke-linejoin="round"></path>
            <path d="M70.4,33.6 L70.4,58.8 C70.4,61.782 67.982,64.2 65,64.2 L25.4,64.2 C22.418,64.2 20,61.782 20,58.8 L20,33.6 C20,30.618 22.418,28.2 25.4,28.2 L65,28.2 C67.982,28.2 70.4,30.618 70.4,33.6" id="Fill-5" fill="#E45544"></path>
            <path d="M70.4,33.6 L70.4,58.8 C70.4,61.782 67.982,64.2 65,64.2 L25.4,64.2 C22.418,64.2 20,61.782 20,58.8 L20,33.6 C20,30.618 22.418,28.2 25.4,28.2 L65,28.2 C67.982,28.2 70.4,30.618 70.4,33.6 L70.4,33.6 Z" id="Stroke-7" stroke="#3F291E" stroke-width="2" stroke-linecap="round" stroke-linejoin="round"></path>
            <path d="M65,36.3 L65,36.3 C65,37.791 63.791,39 62.3,39 L28.1,39 C26.609,39 25.4,37.791 25.4,36.3 C25.4,34.809 26.609,33.6 28.1,33.6 L62.3,33.6 C63.791,33.6 65,34.809 65,36.3" id="Fill-9" fill="#FFFFFF"></path>
            <path d="M65,36.3 L65,36.3 C65,37.791 63.791,39 62.3,39 L28.1,39 C26.609,39 25.4,37.791 25.4,36.3 C25.4,34.809 26.609,33.6 28.1,33.6 L62.3,33.6 C63.791,33.6 65,34.809 65,36.3 L65,36.3 Z" id="Stroke-11" stroke="#3F291E" stroke-width="2" stroke-linecap="round" stroke-linejoin="round"></path>
            <path d="M54.2,51.6 C54.2,56.571 50.171,60.6 45.2,60.6 C40.229,60.6 36.2,56.571 36.2,51.6 C36.2,46.629 40.229,42.6 45.2,42.6 C50.171,42.6 54.2,46.629 54.2,51.6" id="Fill-13" fill="#5B6875"></path>
            <path d="M54.2,51.6 C54.2,56.571 50.171,60.6 45.2,60.6 C40.229,60.6 36.2,56.571 36.2,51.6 C36.2,46.629 40.229,42.6 45.2,42.6 C50.171,42.6 54.2,46.629 54.2,51.6 L54.2,51.6 Z" id="Stroke-15" stroke="#0E1011" stroke-width="2" stroke-linecap="round" stroke-linejoin="round"></path>
            <path d="M36.3803,49.8 L54.0193,49.8" id="Stroke-17" stroke="#0E1011" stroke-width="2" stroke-linecap="round" stroke-linejoin="round"></path>
            <path d="M37.9999,46.2 L52.3999,46.2" id="Stroke-19" stroke="#0E1011" stroke-width="2" stroke-linecap="round" stroke-linejoin="round"></path>
            <path d="M36.3802,53.4 L54.0192,53.4" id="Stroke-21" stroke="#0E1011" stroke-width="2" stroke-linecap="round" stroke-linejoin="round"></path>
            <path d="M37.9999,57 L52.3999,57" id="Stroke-23" stroke="#0E1011" stroke-width="2" stroke-linecap="round" stroke-linejoin="round"></path>
            <path d="M56,38.1 L56,36.3" id="Stroke-25" stroke="#3F291E" stroke-width="2" stroke-linecap="round" stroke-linejoin="round"></path>
            <path d="M65,56.1 C65,57.591 63.791,58.8 62.3,58.8 C60.809,58.8 59.6,57.591 59.6,56.1 C59.6,54.609 60.809,53.4 62.3,53.4 C63.791,53.4 65,54.609 65,56.1" id="Fill-27" fill="#5B6875"></path>
            <path d="M65,56.1 C65,57.591 63.791,58.8 62.3,58.8 C60.809,58.8 59.6,57.591 59.6,56.1 C59.6,54.609 60.809,53.4 62.3,53.4 C63.791,53.4 65,54.609 65,56.1 L65,56.1 Z" id="Stroke-29" stroke="#0E1011" stroke-width="2" stroke-linecap="round" stroke-linejoin="round"></path>
            <path d="M30.8,56.1 C30.8,57.591 29.591,58.8 28.1,58.8 C26.609,58.8 25.4,57.591 25.4,56.1 C25.4,54.609 26.609,53.4 28.1,53.4 C29.591,53.4 30.8,54.609 30.8,56.1" id="Fill-31" fill="#5B6875"></path>
            <path d="M30.8,56.1 C30.8,57.591 29.591,58.8 28.1,58.8 C26.609,58.8 25.4,57.591 25.4,56.1 C25.4,54.609 26.609,53.4 28.1,53.4 C29.591,53.4 30.8,54.609 30.8,56.1 L30.8,56.1 Z" id="Stroke-33" stroke="#0E1011" stroke-width="2" stroke-linecap="round" stroke-linejoin="round"></path>
        </g>
    </g>
</svg>
